documentation-ja/cursor-block.svg

<svg xmlns="http://www.w3.org/2000/svg" width="147" height="79" style=""><rect id="backgroundrect" width="100%" height="100%" x="0" y="0" fill="none" stroke="none" style="" class=""/><g class="currentLayer" style=""><title>Layer 1</title><g class=""><g id="svg_15" class=""><g transform="translate(337, 323) scale(1.5)" id="svg_16"><path d="m-216.6666717529297,-215.3333282470703 L-126.66667175292969,-215.3333282470703 L-126.66667175292969,-195.3333282470703 L-216.6666717529297,-195.3333282470703 L-216.6666717529297,-203.3333282470703 L-216.6666717529297,-204.3333282470703 L-222.6666717529297,-204.3333282470703 L-222.6666717529297,-201.3333282470703 L-224.6666717529297,-201.3333282470703 L-224.6666717529297,-209.3333282470703 L-222.6666717529297,-209.3333282470703 L-222.6666717529297,-206.3333282470703 L-216.6666717529297,-206.3333282470703 L-216.6666717529297,-207.3333282470703 z" style="fill:#FF5942;fill-opacity:1;stroke:#EA4326;stroke-width:1;stroke-linecap:round;stroke-opacity:1;" id="svg_17"/><text style="font-size:10px;fill:#282828;font-family:sans-serif;text-anchor:start" id="svg_18" y="-215.8333282470703" x="-225.1666717529297"><tspan x="-212.1666717529297" y="-201.8333282470703" id="svg_19">xざひょうち（カーソル）</tspan></text></g></g><g id="svg_20" class=""><g transform="translate(337, 372) scale(1.5)" id="svg_21"><path d="m-216.6666717529297,-215.3333282470703 L-126.66667175292969,-215.3333282470703 L-126.66667175292969,-195.3333282470703 L-216.6666717529297,-195.3333282470703 L-216.6666717529297,-203.3333282470703 L-216.6666717529297,-204.3333282470703 L-222.6666717529297,-204.3333282470703 L-222.6666717529297,-201.3333282470703 L-224.6666717529297,-201.3333282470703 L-224.6666717529297,-209.3333282470703 L-222.6666717529297,-209.3333282470703 L-222.6666717529297,-206.3333282470703 L-216.6666717529297,-206.3333282470703 L-216.6666717529297,-207.3333282470703 z" style="fill:#FF5942;fill-opacity:1;stroke:#EA4326;stroke-width:1;stroke-linecap:round;stroke-opacity:1;" id="svg_22"/><text style="font-size:10px;fill:#282828;font-family:sans-serif;text-anchor:start" id="svg_23" y="-215.8333282470703" x="-225.1666717529297"><tspan x="-212.1666717529297" y="-201.8333282470703" id="svg_24">yざひょうち（カーソル）</tspan></text></g></g></g></g></svg>

<?xml version="1.0" encoding="UTF-8" standalone="no"?>
<svg
   xmlns:dc="http://purl.org/dc/elements/1.1/"
   xmlns:cc="http://creativecommons.org/ns#"
   xmlns:rdf="http://www.w3.org/1999/02/22-rdf-syntax-ns#"
   xmlns:svg="http://www.w3.org/2000/svg"
   xmlns="http://www.w3.org/2000/svg"
   id="svg19"
   version="1.1"
   height="80.5"
   width="192.5">
  <metadata
     id="metadata25">
    <rdf:RDF>
      <cc:Work
         rdf:about="">
        <dc:format>image/svg+xml</dc:format>
        <dc:type
           rdf:resource="http://purl.org/dc/dcmitype/StillImage" />
        <dc:title></dc:title>
      </cc:Work>
    </rdf:RDF>
  </metadata>
  <defs
     id="defs23" />
  <rect
     class=""
     style="fill:none;stroke:none"
     y="0.74999499"
     x="0.75000501"
     height="100%"
     width="100%"
     id="backgroundrect" />
  <g
     transform="translate(0.750005,0.749995)"
     id="g17"
     class="currentLayer">
    <title
       id="title3">Layer 1</title>
    <g
       id="g15"
       class="">
      <g
         class=""
         id="svg_15">
        <g
           id="svg_16"
           transform="matrix(1.5,0,0,1.5,337,323)">
          <path
             id="svg_17"
             style="fill:#ff5942;fill-opacity:1;stroke:#ea4326;stroke-width:1;stroke-linecap:round;stroke-opacity:1"
             d="m -216.66667,-215.33333 h 119.333332 v 20 H -216.66667 v -8 -1 h -6 v 3 h -2 v -8 h 2 v 3 h 6 v -1 z" />
          <text
             x="-225.16667"
             y="-215.83333"
             id="svg_18"
             style="font-size:10px;font-family:sans-serif;text-anchor:start;fill:#282828">
            <tspan
               id="svg_19"
               y="-201.83333"
               x="-212.16667">xざひょうち（カーソル）</tspan>
          </text>
        </g>
      </g>
      <g
         class=""
         id="svg_20">
        <g
           id="svg_21"
           transform="matrix(1.5,0,0,1.5,337,372)">
          <path
             id="svg_22"
             style="fill:#ff5942;fill-opacity:1;stroke:#ea4326;stroke-width:1;stroke-linecap:round;stroke-opacity:1"
             d="m -216.66667,-215.33333 h 119.333332 v 20 H -216.66667 v -8 -1 h -6 v 3 h -2 v -8 h 2 v 3 h 6 v -1 z" />
          <text
             x="-225.16667"
             y="-215.83333"
             id="svg_23"
             style="font-size:10px;font-family:sans-serif;text-anchor:start;fill:#282828">
            <tspan
               id="svg_24"
               y="-201.83333"
               x="-212.16667">yざひょうち（カーソル）</tspan>
          </text>
        </g>
      </g>
    </g>
  </g>
</svg>
